!!!OTL: ES SOLLT EIN SCHAEFER HUETEN GEHN
!!!ARE: Europa, Mitteleuropa, Deutschland, Siebengebirge
!!!SCT: E0043D
!!!YEM: Copyright 1995, estate of Helmut Schaffrath.
**kern
*ICvox
*Ivox
*M6/8
*k[f#]
*e:
{8dn
=1
8dn
8a
8a
8a
8b
8ccn
=2
8.b
16a
8b
4gn
8r}
=3
{8a
8b
8ccn
8.ddn
16ee
8ddn
=4
4ccn
8b
4a}
{16a
16b
=5
4ccn
8ccn
4ccn
8b
=6
4gn
8f#
4e
8r}
=7
{4e
8e
4f#
8r
=8
4b
8b
4f#}
{8f#
=9
8a
8gn
8f#
8gn
8f#
8e
=10
4f#
8b
4e}
==
!!!AGN: erzaehlendes Volks - Lied, Ritter - Sage, Ballade ?
!!!ONB: ESAC (Essen Associative Code) Database: ERK1
!!!AMT: compound duple
!!!AIN: vox
!!!EED: Helmut Schaffrath
!!!EEV: 1.0
*-
